!!!COM: Bach, Johann Sebastian
!!!CDT: 1685/02/21/-1750/07/28/
!!!OTL@@DE: Sanctus, sanctus Dominus Deus Sabaoth
!!!SCT: BWV 325
!!!PC#: 319
!!!AGN: chorale
**kern	**kern	**kern	**kern	**qual
*ICvox	*ICvox	*ICvox	*ICvox	*ICvox
*Ibass	*Itenor	*Ialto	*Isoprn	*
*I"Bass	*I"Tenor	*I"Alto	*I"Soprano	*
*clefF4	*clefGv2	*clefG2	*clefG2	*
*k[b-]	*k[b-]	*k[b-]	*k[b-]	*k[b-]
*F:	*F:	*F:	*F:	*F:
*M4/4	*M4/4	*M4/4	*M4/4	*M4/4
*met(c)	*met(c)	*met(c)	*met(c)	*met(c)
*MM100	*MM100	*MM100	*MM100	*MM100
=1-	=1-	=1-	=1-	=1-
8FFL	8AL	4f	4cc	maj:0:F
8GG	8B-J	.	.	X[cfgb-]
8AA	4.c	4.f	4a	maj:1:F
8BB-J	.	.	.	X[cfab-]
2C	.	.	2g	X[cfg]
.	8G	16eLL	.	maj:0:C
.	.	16dJJ	.	X[cdg]
.	8cL	4e	.	maj:0:C
.	8B-J	.	.	dom7:0:C
=2	=2	=2	=2	=2
2FF;	2A;	2c;	2f;	maj:0:F
8EL	4.c	4g	4cc	maj:1:C
8CJ	.	.	.	incmajx3:0:C
8GL	.	4g	4dd	X[cdg]
8GGJ	8B	.	.	maj:0:G
=3	=3	=3	=3	=3
2C;	2e;	2g;	2cc;	maj:0:C
8DL	4A	4f	4ff	min:0:D
8CJ	.	.	.	maj:2:F
8BBL@	[4d@	4g@	4ff@	dom7:1:G
8GGJ	.	.	.	X[dfg]
=4	=4	=4	=4	=4
8CL	8dL]	4g	4ee	X[cdeg]
8EJ	16cL	.	.	maj:1:C
.	16BJJ	.	.	min:0:E
8AL	4.c	8eL	4ee	min:0:A
8GJ	.	16fL	.	X[cefg]
.	.	16gJJ	.	maj:2:C
8FL	.	4.a	4.dd	minmin7:1:D
8DJ	16BLL	.	.	minmin7x5:1:B
.	16AJJ	.	.	incmajx3:0:D
8GL	4B	.	.	X[dgab]
8GGJ	.	16gLL	8cc	X[cgb]
.	.	16fJJ	.	X[cfgb]
=5	=5	=5	=5	=5
2C;	2G;	2e;	2cc;	maj:0:C
4F	4A	4f	4cc	maj:0:F
4BB-X	8B-XL	4f	4dd	maj:0:B-
.	8AJ	.	.	majmaj7:0:B-
=6	=6	=6	=6	=6
4C	4G	4e	4cc	maj:0:C
8DL	8FL	8dL	4b-	maj:1:B-
8EJ	8GJ	8cJ	.	dom7:1:C
2F;	2A;	2c;	2a;	maj:0:F
=7	=7	=7	=7	=7
4r	4ry	4ry	4r	::
8CL	4c	8eL	4g	maj:0:C
8EJ	.	8gJ	.	maj:1:C
8FL	4c	4f	8aL	maj:0:F
8GJ	.	.	8bJ	X[cfgb]
8AL	4c	4e	4cc	min:0:A
8GJ	.	.	.	maj:2:C
=8	=8	=8	=8	=8
8FL	[4d	8aL	4cc	minmin7:1:D
8DJ	.	16gL	.	X[cdg]
.	.	16fJJ	.	minmin7x5:0:D
8GL	8dL]	4g	4b	maj:0:G
8GGJ	16eL	.	.	min:1:E
.	16fJJ	.	.	dom7x5:0:G
2C;	2e;	2g;	2cc;	maj:0:C
=9	=9	=9	=9	=9
8FL	4f	4a	4cc	maj:0:F
8EJ	.	.	.	majmaj7:3:F
8DL	4f	4.a	4dd	min:0:D
8FJ	.	.	.	min:1:D
8GL	4d	.	4b-X	X[dgab-]
8FJ	.	16gLL	.	minmin7:3:G
.	.	16fJJ	.	maj:2:B-
8EL@	4c@	[4g@	4b-@	dom7:1:C
8CJ	.	.	.	X[cgb-]
=10	=10	=10	=10	=10
8FL	4c	8gL]	4a	X[cfga]
8EJ	.	16fL	.	majmaj7:3:F
.	.	16eJJ	.	min:2:A
8DL	8B-L	4.f	4b-	maj:1:B-
8BB-J	8dJ	.	.	maj:0:B-
4C	4.c	.	4a	maj:2:F
.	.	16eLL	.	min:1:A
.	.	16dJJ	.	X[cda]
4CC	.	4e	4g	maj:0:C
.	8B-	.	.	dom7:0:C
=11	=11	=11	=11	=11
2FF;	2A;	2c;	2f;	maj:0:F
4r	4ry	4ry	4r	::
4F	[4c	[4f	4a	maj:0:F
=12	=12	=12	=12	=12
2C	4.c]	4f]	2g	X[cfg]
.	.	4e	.	maj:0:C
.	8B-	.	.	dom7:0:C
4D;	4A;	4d;	4f;	min:0:D
4E	4G	4g	4cc	maj:1:C
=13	=13	=13	=13	=13
4F	4d	4a	4cc	minmin7:1:D
4G	4d	8gL	4b	maj:0:G
.	.	8fJ	.	dom7:0:G
4A;	4c;	4e;	4cc;	min:0:A
4A	4c	4f	4ff	maj:1:F
=14	=14	=14	=14	=14
4B@	4.d@	4g@	4ff@	dom7:1:G
4c	.	4g	4ee	X[cdeg]
.	[8c	.	.	maj:0:C
4F	8cL]	4a	2dd	minmin7:1:D
.	16BL	.	.	halfdim7:2:B
.	16AJJ	.	.	min:1:D
4G	4B	8gL	.	maj:0:G
.	.	8fJ	.	dom7:0:G
=15	=15	=15	=15	=15
2C;	2G;	2e;	2cc;	maj:0:C
8FL	4A	4f	4cc	maj:0:F
8EJ	.	.	.	majmaj7:3:F
8DL	4A	8fL	8ddL	min:0:D
8FJ	.	8eJ	8ccJ	majmaj7:0:F
=16	=16	=16	=16	=16
8GL	8B-L	4d	4b-	min:0:G
8FJ	8AJ	.	.	majmaj7:2:B-
8EL@	4G@	4c@	4b-@	dom7:1:C
8CJ	.	.	.	X[cgb-]
8FL	8FL	8cL	4a	maj:0:F
8EJ	8AJ	16dL	.	X[dea]
.	.	16eJJ	.	incmajx3:1:A
8DL	[4d	[4f	8b-L	maj:1:B-
8CJ	.	.	8aJ	minmin7:3:D
=17	=17	=17	=17	=17
8BB-L	8dL]	8fL]	2g	minmin7:1:G
8GGJ	8B-J	16eL	.	dim:1:E
.	.	16dJJ	.	min:0:G
4C	8GL	4e	.	maj:0:C
.	8cJ	.	.	maj:0:C
2FF;	2A;	2c;	2f;	maj:0:F
==	==	==	==	==
*-	*-	*-	*-	*-
!!!hum2abc: -Q ''
!!!title: @{PC#}. @{OTL@@DE}
!!!YOR1: 371 vierstimmige Choralges&auml;nge von Johann Sebastian Bach,
!!!YOR2: 4th ed. by Alfred D&ouml;rffel (Leipzig: Breitkopf und H&auml;rtel,
!!!YOR2: c.1875). 178 pp. Plate "V.A.10".  reprint: J.S. Bach, 371 Four-Part
!!!YOR4: Chorales (New York: Associated Music Publishers, Inc., c.1940).
!!!SMS: B&H, 4th ed, Alfred D&ouml;rffel, c.1875, plate V.A.10
!!!EED:  Craig Stuart Sapp
!!!EEV:  2009/05/22
!!!RDF**kern: @ = matched note, color="#ff0000"
